openttd-serif/glyphs/latin_extended-B/401_F-hook.svg

<?xml version="1.0" encoding="UTF-8" standalone="no"?>
<!-- Created with Inkscape (http://www.inkscape.org/) -->

<svg
   width="2000"
   height="2000"
   viewBox="0 0 2000 2000"
   version="1.1"
   id="svg1"
   inkscape:version="1.2.2 (732a01da63, 2022-12-09)"
   sodipodi:docname="401_F-hook.svg"
   xml:space="preserve"
   xmlns:inkscape="http://www.inkscape.org/namespaces/inkscape"
   xmlns:sodipodi="http://sodipodi.sourceforge.net/DTD/sodipodi-0.dtd"
   xmlns="http://www.w3.org/2000/svg"
   xmlns:svg="http://www.w3.org/2000/svg"><sodipodi:namedview
     id="namedview1"
     pagecolor="#ffffff"
     bordercolor="#000000"
     borderopacity="0.25"
     inkscape:showpageshadow="2"
     inkscape:pageopacity="0.0"
     inkscape:pagecheckerboard="0"
     inkscape:deskcolor="#d1d1d1"
     inkscape:document-units="px"
     showgrid="true"
     inkscape:zoom="0.78606706"
     inkscape:cx="305.95354"
     inkscape:cy="1038.0794"
     inkscape:window-width="3840"
     inkscape:window-height="2066"
     inkscape:window-x="5749"
     inkscape:window-y="-11"
     inkscape:window-maximized="1"
     inkscape:current-layer="layer1"
     showguides="false"><inkscape:grid
       id="grid1"
       units="px"
       originx="0"
       originy="0"
       spacingx="25"
       spacingy="25"
       empcolor="#0099e5"
       empopacity="0.30196078"
       color="#0099e5"
       opacity="0.14901961"
       empspacing="4"
       dotted="false"
       gridanglex="30"
       gridanglez="30"
       visible="true" /></sodipodi:namedview><defs
     id="defs1" /><g
     inkscape:label="Layer 1"
     inkscape:groupmode="layer"
     id="layer1"><path
       id="path8529"
       style="fill:#000000;fill-opacity:0.555319;fill-rule:evenodd;stroke:none;stroke-width:1px;stroke-linecap:butt;stroke-linejoin:miter;stroke-opacity:1"
       d="m 600,200 v 100 h 200 v 1200 150 c 0,124.9999 -20.00025,240 -250,240 -369.99963,0 -339.99993,-170.0001 -275,-240 14.99998,40 50.00007,70 125,70 74.99993,0 120,-70.0001 120,-120 0,-79.9999 -70.0001,-120 -170,-120 -79.99992,0 -248.09177,89.4529 -250,220 -2.776967,189.9795 200.00025,300 450,300 249.99975,0 550,-140.0002 550,-350 V 1500 900 h 150 c 99.9998,0 200.0002,100.0002 300,200 h 50 V 600 h -50 c -99.9998,99.9998 -200.0002,200 -300,200 H 1100 V 300 h 400 c 99.9998,0 250.0004,100.0004 450,300 h 50 V 200 Z"
       sodipodi:nodetypes="ccccsscssssssccsccccsccscccc" /></g></svg>

<?xml version="1.0" encoding="UTF-8" standalone="no"?>
<!-- Created with Inkscape (http://www.inkscape.org/) -->

<svg
   width="2000"
   height="2000"
   viewBox="0 0 2000 2000"
   version="1.1"
   id="svg1"
   inkscape:version="1.2.2 (732a01da63, 2022-12-09)"
   sodipodi:docname="401_F-hook.svg"
   xml:space="preserve"
   xmlns:inkscape="http://www.inkscape.org/namespaces/inkscape"
   xmlns:sodipodi="http://sodipodi.sourceforge.net/DTD/sodipodi-0.dtd"
   xmlns="http://www.w3.org/2000/svg"
   xmlns:svg="http://www.w3.org/2000/svg"><sodipodi:namedview
     id="namedview1"
     pagecolor="#ffffff"
     bordercolor="#000000"
     borderopacity="0.25"
     inkscape:showpageshadow="2"
     inkscape:pageopacity="0.0"
     inkscape:pagecheckerboard="0"
     inkscape:deskcolor="#d1d1d1"
     inkscape:document-units="px"
     showgrid="true"
     inkscape:zoom="0.78606706"
     inkscape:cx="564.20123"
     inkscape:cy="1038.0794"
     inkscape:window-width="3840"
     inkscape:window-height="2066"
     inkscape:window-x="-11"
     inkscape:window-y="-11"
     inkscape:window-maximized="1"
     inkscape:current-layer="layer1"
     showguides="false"><inkscape:grid
       id="grid1"
       units="px"
       originx="0"
       originy="0"
       spacingx="25"
       spacingy="25"
       empcolor="#0099e5"
       empopacity="0.30196078"
       color="#0099e5"
       opacity="0.14901961"
       empspacing="4"
       dotted="false"
       gridanglex="30"
       gridanglez="30"
       visible="true" /></sodipodi:namedview><defs
     id="defs1" /><g
     inkscape:label="Layer 1"
     inkscape:groupmode="layer"
     id="layer1"><path
       id="path8529"
       style="fill:#000000;fill-opacity:0.555319;fill-rule:evenodd;stroke:none;stroke-width:1px;stroke-linecap:butt;stroke-linejoin:miter;stroke-opacity:1"
       d="M 600 200 L 600 300 L 800 300 L 800 1500 L 800 1650 C 800 1774.9999 779.99975 1900 550 1900 C 180.00037 1900 210.00007 1719.9999 275 1650 C 289.99998 1690 325.00007 1720 400 1720 C 474.99993 1720 520 1649.9999 520 1600 C 520 1520.0001 449.9999 1480 350 1480 C 270.00008 1480 101.90823 1569.4529 100 1700 C 97.223033 1889.9795 300.00025 2010 550 2010 C 799.99975 2010 1100 1859.9998 1100 1650 L 1100 1500 L 1100 900 L 1250 900 C 1349.9998 900 1450.0002 1000.0002 1550 1100 L 1600 1100 L 1600 600 L 1550 600 C 1450.0002 699.9998 1349.9998 800 1250 800 L 1100 800 L 1100 300 L 1500 300 C 1599.9998 300 1750.0004 400.0004 1950 600 L 2000 600 L 2000 200 L 600 200 z " /></g></svg>
